X: 105201
Q:"Strathspey."
M: C
L: 1/16
K: Am
(c3B) |\
ve3vcud3uB c3AB3G | (EA3) (^G3B) A4 (A3B) |]\
vAa3 a3ub vg3ug bag^f | ea3 a3b g4 (^f2g2) |\
ea3 a3b g3g bag^f |
ve3vc (dB3) A4 (A2B2) |\
(3a2g2^f2 (3g2a2b2 (3e2d2c2 (3B2c2d2 | ve3uc vduB3 A4 |]


